X: 25
T: Peter Street
T: Timour the Tartar
T: Blanchard Races
R: reel
Z: 2006 John Chambers <jc:trillian.mit.edu>
B: "Rinnci na h-\'Eireann" Elizabeth Burchenal, ed. G.Schirmer (1925) p.18
M: 2/4
L: 1/16
%Q: 1/4=112
K: A
|: "A"A2((3cBA) eA((3cBA) | eAaA "D"gAfA | "A"eA((3cBA) eAfA | "E7"BEcE    dEBE |
   "A"A2((3cBA) eA((3cBA) | eAaA "D"gAfA | "A"efec      eaec | "E7"BABc "A"A4  :|
|: "E"E2((3GFE) BE((3GFE) |    BEdE    cEBE | "A"A2((3cBA) eA((3cBA) |     eAaA "D"gAfA  |
   "A"edec   "D"agaf      | "A"edec "D"agaf | "A"ecag      fedc      | "E7"BAGF    EFGE :|

%%sep 2 1 500

